X: 160539
T: Paddy Kelly's (3)
S: Treoir
Z: B.Black
M: 4/4
Q: 360
L: 1/8
R: reel
K: G
d |: BG G2 DGGD | Bdef gedc | BG G2 DGGD |ABAG EG D2 :|
gage abaf | gage fd d2 | gage a2 ga |b3 a gfed |
g3 e a3 f | gage fd d2 | g3 e a2 ga |b2 ba gfed ||
